X: 14709
T: Gan Ainm
R: jig
M: 6/8
K: Gmajor
D|:GBB GBB|GBd dcB|A3 AGA|B2 z G2 D|
GBB GBB|GBd dcB|DcB dcA|G3 GFG:|
K:Dmajor
|:A3 ABc|dfe dcd|egf age|dfe dFG|
A3 ABc|dfe dcd|egf age|d2 d cBA:|

